assets/dude/That–Dolly.svg

<svg width="387" height="106" viewBox="0 0 387 106" fill="none" xmlns="http://www.w3.org/2000/svg">
<path d="M77.7822 6.01989C73.5822 6.01989 69.9422 7.97989 67.5622 11.0599C66.5822 12.3199 66.3022 13.8599 65.8822 13.8599C65.4622 13.8599 64.9022 12.3199 64.2022 11.0599C62.2422 7.55989 56.6422 0.139893 45.7222 0.139893C34.8022 0.139893 29.2022 7.55989 27.2422 11.0599C26.5422 12.3199 25.9822 13.8599 25.5622 13.8599C25.1422 13.8599 24.8622 12.3199 23.8822 11.0599C21.5022 7.97989 17.8622 6.01989 13.6622 6.01989C6.38223 6.01989 0.782227 11.8999 0.782227 19.1799C0.782227 24.6399 4.14223 27.2999 4.14223 40.7399V52.0799C4.14223 52.7799 4.70223 53.3399 5.40223 53.3399H12.9622C13.6622 53.3399 14.2222 52.7799 14.2222 52.0799V50.8199C14.2222 45.9199 18.1422 41.9999 23.0422 41.9999H39.4222C40.1222 41.9999 40.6822 42.5599 40.6822 43.2599V68.4599C40.6822 69.1599 40.1222 69.7199 39.4222 69.7199H25.5622C24.8622 69.7199 24.3022 70.2799 24.3022 70.9799C24.3022 84.4199 20.9422 87.0799 20.9422 92.5399C20.9422 99.8199 26.5422 105.7 33.8222 105.7C38.0222 105.7 41.6622 103.74 44.0422 100.66C45.0222 99.3999 45.3022 97.8599 45.7222 97.8599C46.1422 97.8599 46.4222 99.3999 47.4022 100.66C49.7822 103.74 53.4222 105.7 57.6222 105.7C64.9022 105.7 70.5022 99.8199 70.5022 92.5399C70.5022 87.0799 67.1422 84.4199 67.1422 70.9799C67.1422 70.2799 66.5822 69.7199 65.8822 69.7199H52.0222C51.3222 69.7199 50.7622 69.1599 50.7622 68.4599V43.2599C50.7622 42.5599 51.3222 41.9999 52.0222 41.9999H68.4022C73.3022 41.9999 77.2222 45.9199 77.2222 50.8199V52.0799C77.2222 52.7799 77.7822 53.3399 78.4822 53.3399H86.0422C86.7422 53.3399 87.3022 52.7799 87.3022 52.0799V40.7399C87.3022 27.2999 90.6622 24.6399 90.6622 19.1799C90.6622 11.8999 85.0622 6.01989 77.7822 6.01989Z" fill="#FF1C31"/>
<path d="M193.812 69.7199H179.952C179.252 69.7199 178.692 69.1599 178.692 68.4599V43.2599C178.692 42.5599 179.252 41.9999 179.952 41.9999H193.812C194.512 41.9999 195.072 41.4399 195.072 40.7399C195.072 27.2999 198.432 24.6399 198.432 19.1799C198.432 11.8999 192.832 6.01989 185.552 6.01989C181.352 6.01989 177.712 7.97989 175.332 11.0599C174.352 12.3199 174.072 13.8599 173.652 13.8599C173.232 13.8599 172.952 12.3199 171.972 11.0599C169.592 7.97989 165.952 6.01989 161.752 6.01989C154.472 6.01989 148.872 11.8999 148.872 19.1799C148.872 24.6399 152.232 27.2999 152.232 40.7399C152.232 41.4399 152.792 41.9999 153.492 41.9999H167.352C168.052 41.9999 168.612 42.5599 168.612 43.2599V50.8199C168.612 51.5199 168.052 52.0799 167.352 52.0799H127.032C126.332 52.0799 125.772 51.5199 125.772 50.8199V43.2599C125.772 42.5599 126.332 41.9999 127.032 41.9999H140.892C141.592 41.9999 142.152 41.4399 142.152 40.7399C142.152 27.2999 145.512 24.6399 145.512 19.1799C145.512 11.8999 139.912 6.01989 132.632 6.01989C128.432 6.01989 124.792 7.97989 122.412 11.0599C121.432 12.3199 121.152 13.8599 120.732 13.8599C120.312 13.8599 120.032 12.3199 119.052 11.0599C116.672 7.97989 113.032 6.01989 108.832 6.01989C101.552 6.01989 95.9516 11.8999 95.9516 19.1799C95.9516 24.6399 99.3116 27.2999 99.3116 40.7399C99.3116 41.4399 99.8716 41.9999 100.572 41.9999H114.432C115.132 41.9999 115.692 42.5599 115.692 43.2599V68.4599C115.692 69.1599 115.132 69.7199 114.432 69.7199H100.572C99.8716 69.7199 99.3116 70.2799 99.3116 70.9799C99.3116 84.4199 95.9516 87.0799 95.9516 92.5399C95.9516 99.8199 101.552 105.7 108.832 105.7C113.032 105.7 116.672 103.74 119.052 100.66C120.032 99.3999 120.312 97.8599 120.732 97.8599C121.152 97.8599 121.432 99.3999 122.412 100.66C124.792 103.74 128.432 105.7 132.632 105.7C139.912 105.7 145.512 99.8199 145.512 92.5399C145.512 87.0799 142.152 84.4199 142.152 70.9799C142.152 70.2799 141.592 69.7199 140.892 69.7199H127.032C126.332 69.7199 125.772 69.1599 125.772 68.4599V60.8999C125.772 60.1999 126.332 59.6399 127.032 59.6399H167.352C168.052 59.6399 168.612 60.1999 168.612 60.8999V68.4599C168.612 69.1599 168.052 69.7199 167.352 69.7199H153.492C152.792 69.7199 152.232 70.2799 152.232 70.9799C152.232 84.4199 148.872 87.0799 148.872 92.5399C148.872 99.8199 154.472 105.7 161.752 105.7C165.952 105.7 169.592 103.74 171.972 100.66C172.952 99.3999 173.232 97.8599 173.652 97.8599C174.072 97.8599 174.352 99.3999 175.332 100.66C177.712 103.74 181.352 105.7 185.552 105.7C192.832 105.7 198.432 99.8199 198.432 92.5399C198.432 87.0799 195.072 84.4199 195.072 70.9799C195.072 70.2799 194.512 69.7199 193.812 69.7199Z" fill="#FF1C31"/>
<path d="M302.519 70.9799C302.519 70.2799 301.959 69.7199 301.259 69.7199H289.079C288.379 69.7199 287.679 69.1599 286.979 68.0399L271.299 43.3999C271.299 43.3999 271.019 42.9799 271.019 42.5599C271.019 42.2799 271.299 41.9999 271.859 41.9999H274.799C275.499 41.9999 276.059 41.4399 276.059 40.7399C276.059 27.2999 279.419 24.6399 279.419 19.1799C279.419 11.8999 273.819 6.01989 266.539 6.01989C262.339 6.01989 258.699 7.97989 256.319 11.0599C255.339 12.3199 255.059 13.8599 254.639 13.8599C254.219 13.8599 253.939 12.3199 252.959 11.0599C250.579 7.97989 246.939 6.01989 242.739 6.01989C235.459 6.01989 229.859 11.8999 229.859 19.1799C229.859 24.6399 233.219 27.2999 233.219 40.7399C233.219 41.4399 233.779 41.9999 234.479 41.9999H239.099C239.659 41.9999 239.939 42.2799 239.939 42.5599C239.939 42.9799 239.659 43.3999 239.659 43.3999L223.979 68.0399C223.279 69.1599 222.859 69.7199 222.159 69.7199H208.019C207.319 69.7199 206.759 70.2799 206.759 70.9799C206.759 84.4199 203.399 87.0799 203.399 92.5399C203.399 99.8199 208.999 105.7 216.279 105.7C220.479 105.7 224.119 103.74 226.499 100.66C227.479 99.3999 227.759 97.8599 228.179 97.8599C228.599 97.8599 228.879 99.3999 229.859 100.66C232.239 103.74 235.879 105.7 240.079 105.7C247.359 105.7 252.959 99.8199 252.959 92.5399C252.959 87.0799 249.599 84.4199 249.599 70.9799C249.599 70.2799 249.039 69.7199 248.339 69.7199H235.039C234.479 69.7199 234.059 69.7199 234.059 69.4399C234.059 69.0199 234.339 68.5999 234.339 68.5999L237.839 63.1399C238.539 62.0199 238.959 61.4599 239.659 61.4599H266.819C267.519 61.4599 267.939 62.0199 268.639 63.1399L271.999 68.3199C271.999 68.3199 272.279 68.7399 272.279 69.1599C272.279 69.4399 271.999 69.7199 271.439 69.7199H260.939C260.239 69.7199 259.679 70.2799 259.679 70.9799C259.679 84.4199 256.319 87.0799 256.319 92.5399C256.319 99.8199 261.919 105.7 269.199 105.7C273.399 105.7 277.039 103.74 279.419 100.66C280.399 99.3999 280.679 97.8599 281.099 97.8599C281.519 97.8599 281.799 99.3999 282.779 100.66C285.159 103.74 288.799 105.7 292.999 105.7C300.279 105.7 305.879 99.8199 305.879 92.5399C305.879 87.0799 302.519 84.4199 302.519 70.9799ZM261.359 53.8999H245.119C244.559 53.8999 244.279 53.6199 244.279 53.3399C244.279 52.9199 244.559 52.4999 244.559 52.4999L249.879 43.6799C250.579 42.5599 250.999 41.9999 251.699 41.9999H254.639C255.339 41.9999 255.759 42.5599 256.459 43.6799L261.919 52.4999C261.919 52.4999 262.199 52.9199 262.199 53.3399C262.199 53.6199 261.919 53.8999 261.359 53.8999Z" fill="#FF1C31"/>
<path d="M373.368 6.01989C369.168 6.01989 365.528 7.97989 363.148 11.0599C362.168 12.3199 361.888 13.8599 361.468 13.8599C361.048 13.8599 360.488 12.3199 359.788 11.0599C357.828 7.55989 352.228 0.139893 341.308 0.139893C330.388 0.139893 324.788 7.55989 322.828 11.0599C322.128 12.3199 321.568 13.8599 321.148 13.8599C320.728 13.8599 320.448 12.3199 319.468 11.0599C317.088 7.97989 313.448 6.01989 309.248 6.01989C301.968 6.01989 296.368 11.8999 296.368 19.1799C296.368 24.6399 299.728 27.2999 299.728 40.7399V52.0799C299.728 52.7799 300.288 53.3399 300.988 53.3399H308.548C309.248 53.3399 309.808 52.7799 309.808 52.0799V50.8199C309.808 45.9199 313.728 41.9999 318.628 41.9999H335.008C335.708 41.9999 336.268 42.5599 336.268 43.2599V68.4599C336.268 69.1599 335.708 69.7199 335.008 69.7199H321.148C320.448 69.7199 319.888 70.2799 319.888 70.9799C319.888 84.4199 316.528 87.0799 316.528 92.5399C316.528 99.8199 322.128 105.7 329.408 105.7C333.608 105.7 337.248 103.74 339.628 100.66C340.608 99.3999 340.888 97.8599 341.308 97.8599C341.728 97.8599 342.008 99.3999 342.988 100.66C345.368 103.74 349.008 105.7 353.208 105.7C360.488 105.7 366.088 99.8199 366.088 92.5399C366.088 87.0799 362.728 84.4199 362.728 70.9799C362.728 70.2799 362.168 69.7199 361.468 69.7199H347.608C346.908 69.7199 346.348 69.1599 346.348 68.4599V43.2599C346.348 42.5599 346.908 41.9999 347.608 41.9999H363.988C368.888 41.9999 372.808 45.9199 372.808 50.8199V52.0799C372.808 52.7799 373.368 53.3399 374.068 53.3399H381.628C382.328 53.3399 382.888 52.7799 382.888 52.0799V40.7399C382.888 27.2999 386.248 24.6399 386.248 19.1799C386.248 11.8999 380.648 6.01989 373.368 6.01989Z" fill="#FF1C31"/>
</svg>

<svg xmlns="http://www.w3.org/2000/svg" fill="none" viewBox="0 0 387 106"><path fill="#FF1C31" d="M77.782 6.02c-4.2 0-7.84 1.96-10.22 5.04-.98 1.26-1.26 2.8-1.68 2.8-.42 0-.98-1.54-1.68-2.8-1.96-3.5-7.56-10.92-18.48-10.92-10.92 0-16.52 7.42-18.48 10.92-.7 1.26-1.26 2.8-1.68 2.8-.42 0-.7-1.54-1.68-2.8-2.38-3.08-6.02-5.04-10.22-5.04-7.28 0-12.88 5.88-12.88 13.16 0 5.46 3.36 8.12 3.36 21.56v11.34c0 .7.56 1.26 1.26 1.26h7.56c.7 0 1.26-.56 1.26-1.26v-1.26c0-4.9 3.92-8.82 8.82-8.82h16.38c.7 0 1.26.56 1.26 1.26v25.2c0 .7-.56 1.26-1.26 1.26h-13.86c-.7 0-1.26.56-1.26 1.26 0 13.44-3.36 16.1-3.36 21.56 0 7.28 5.6 13.16 12.88 13.16 4.2 0 7.84-1.96 10.22-5.04.98-1.26 1.26-2.8 1.68-2.8.42 0 .7 1.54 1.68 2.8 2.38 3.08 6.02 5.04 10.22 5.04 7.28 0 12.88-5.88 12.88-13.16 0-5.46-3.36-8.12-3.36-21.56 0-.7-.56-1.26-1.26-1.26h-13.86c-.7 0-1.26-.56-1.26-1.26v-25.2c0-.7.56-1.26 1.26-1.26h16.38c4.9 0 8.82 3.92 8.82 8.82v1.26c0 .7.56 1.26 1.26 1.26h7.56c.7 0 1.26-.56 1.26-1.26V40.74c0-13.44 3.36-16.1 3.36-21.56 0-7.28-5.6-13.16-12.88-13.16zM193.812 69.72h-13.86c-.7 0-1.26-.56-1.26-1.26v-25.2c0-.7.56-1.26 1.26-1.26h13.86c.7 0 1.26-.56 1.26-1.26 0-13.44 3.36-16.1 3.36-21.56 0-7.28-5.6-13.16-12.88-13.16-4.2 0-7.84 1.96-10.22 5.04-.98 1.26-1.26 2.8-1.68 2.8-.42 0-.7-1.54-1.68-2.8-2.38-3.08-6.02-5.04-10.22-5.04-7.28 0-12.88 5.88-12.88 13.16 0 5.46 3.36 8.12 3.36 21.56 0 .7.56 1.26 1.26 1.26h13.86c.7 0 1.26.56 1.26 1.26v7.56c0 .7-.56 1.26-1.26 1.26h-40.32c-.7 0-1.26-.56-1.26-1.26v-7.56c0-.7.56-1.26 1.26-1.26h13.86c.7 0 1.26-.56 1.26-1.26 0-13.44 3.36-16.1 3.36-21.56 0-7.28-5.6-13.16-12.88-13.16-4.2 0-7.84 1.96-10.22 5.04-.98 1.26-1.26 2.8-1.68 2.8-.42 0-.7-1.54-1.68-2.8-2.38-3.08-6.02-5.04-10.22-5.04-7.28 0-12.88 5.88-12.88 13.16 0 5.46 3.36 8.12 3.36 21.56 0 .7.56 1.26 1.26 1.26h13.86c.7 0 1.26.56 1.26 1.26v25.2c0 .7-.56 1.26-1.26 1.26h-13.86c-.7 0-1.26.56-1.26 1.26 0 13.44-3.36 16.1-3.36 21.56 0 7.28 5.6 13.16 12.88 13.16 4.2 0 7.84-1.96 10.22-5.04.98-1.26 1.26-2.8 1.68-2.8.42 0 .7 1.54 1.68 2.8 2.38 3.08 6.02 5.04 10.22 5.04 7.28 0 12.88-5.88 12.88-13.16 0-5.46-3.36-8.12-3.36-21.56 0-.7-.56-1.26-1.26-1.26h-13.86c-.7 0-1.26-.56-1.26-1.26V60.9c0-.7.56-1.26 1.26-1.26h40.32c.7 0 1.26.56 1.26 1.26v7.56c0 .7-.56 1.26-1.26 1.26h-13.86c-.7 0-1.26.56-1.26 1.26 0 13.44-3.36 16.1-3.36 21.56 0 7.28 5.6 13.16 12.88 13.16 4.2 0 7.84-1.96 10.22-5.04.98-1.26 1.26-2.8 1.68-2.8.42 0 .7 1.54 1.68 2.8 2.38 3.08 6.02 5.04 10.22 5.04 7.28 0 12.88-5.88 12.88-13.16 0-5.46-3.36-8.12-3.36-21.56 0-.7-.56-1.26-1.26-1.26zM302.519 70.98c0-.7-.56-1.26-1.26-1.26h-12.18c-.7 0-1.4-.56-2.1-1.68l-15.68-24.64s-.28-.42-.28-.84c0-.28.28-.56.84-.56h2.94c.7 0 1.26-.56 1.26-1.26 0-13.44 3.36-16.1 3.36-21.56 0-7.28-5.6-13.16-12.88-13.16-4.2 0-7.84 1.96-10.22 5.04-.98 1.26-1.26 2.8-1.68 2.8-.42 0-.7-1.54-1.68-2.8-2.38-3.08-6.02-5.04-10.22-5.04-7.28 0-12.88 5.88-12.88 13.16 0 5.46 3.36 8.12 3.36 21.56 0 .7.56 1.26 1.26 1.26h4.62c.56 0 .84.28.84.56 0 .42-.28.84-.28.84l-15.68 24.64c-.7 1.12-1.12 1.68-1.82 1.68h-14.14c-.7 0-1.26.56-1.26 1.26 0 13.44-3.36 16.1-3.36 21.56 0 7.28 5.6 13.16 12.88 13.16 4.2 0 7.84-1.96 10.22-5.04.98-1.26 1.26-2.8 1.68-2.8.42 0 .7 1.54 1.68 2.8 2.38 3.08 6.02 5.04 10.22 5.04 7.28 0 12.88-5.88 12.88-13.16 0-5.46-3.36-8.12-3.36-21.56 0-.7-.56-1.26-1.26-1.26h-13.3c-.56 0-.98 0-.98-.28 0-.42.28-.84.28-.84l3.5-5.46c.7-1.12 1.12-1.68 1.82-1.68h27.16c.7 0 1.12.56 1.82 1.68l3.36 5.18s.28.42.28.84c0 .28-.28.56-.84.56h-10.5c-.7 0-1.26.56-1.26 1.26 0 13.44-3.36 16.1-3.36 21.56 0 7.28 5.6 13.16 12.88 13.16 4.2 0 7.84-1.96 10.22-5.04.98-1.26 1.26-2.8 1.68-2.8.42 0 .7 1.54 1.68 2.8 2.38 3.08 6.02 5.04 10.22 5.04 7.28 0 12.88-5.88 12.88-13.16 0-5.46-3.36-8.12-3.36-21.56zm-41.16-17.08h-16.24c-.56 0-.84-.28-.84-.56 0-.42.28-.84.28-.84l5.32-8.82c.7-1.12 1.12-1.68 1.82-1.68h2.94c.7 0 1.12.56 1.82 1.68l5.46 8.82s.28.42.28.84c0 .28-.28.56-.84.56zM373.368 6.02c-4.2 0-7.84 1.96-10.22 5.04-.98 1.26-1.26 2.8-1.68 2.8-.42 0-.98-1.54-1.68-2.8-1.96-3.5-7.56-10.92-18.48-10.92-10.92 0-16.52 7.42-18.48 10.92-.7 1.26-1.26 2.8-1.68 2.8-.42 0-.7-1.54-1.68-2.8-2.38-3.08-6.02-5.04-10.22-5.04-7.28 0-12.88 5.88-12.88 13.16 0 5.46 3.36 8.12 3.36 21.56v11.34c0 .7.56 1.26 1.26 1.26h7.56c.7 0 1.26-.56 1.26-1.26v-1.26c0-4.9 3.92-8.82 8.82-8.82h16.38c.7 0 1.26.56 1.26 1.26v25.2c0 .7-.56 1.26-1.26 1.26h-13.86c-.7 0-1.26.56-1.26 1.26 0 13.44-3.36 16.1-3.36 21.56 0 7.28 5.6 13.16 12.88 13.16 4.2 0 7.84-1.96 10.22-5.04.98-1.26 1.26-2.8 1.68-2.8.42 0 .7 1.54 1.68 2.8 2.38 3.08 6.02 5.04 10.22 5.04 7.28 0 12.88-5.88 12.88-13.16 0-5.46-3.36-8.12-3.36-21.56 0-.7-.56-1.26-1.26-1.26h-13.86c-.7 0-1.26-.56-1.26-1.26v-25.2c0-.7.56-1.26 1.26-1.26h16.38c4.9 0 8.82 3.92 8.82 8.82v1.26c0 .7.56 1.26 1.26 1.26h7.56c.7 0 1.26-.56 1.26-1.26V40.74c0-13.44 3.36-16.1 3.36-21.56 0-7.28-5.6-13.16-12.88-13.16z"/></svg>
